X:1
T:Deus Tuorum Militum, LM
T:Deus Tuorum Militum, LM
T:Grenoble Antiphoner, 1753
T:Public Domain Courtesy of the Cyber Hymnal™
C:Grenoble Antiphoner, 1753
Z:Public Domain
Z:Courtesy of the Cyber Hymnal™
%%score ( 1 2 ) ( 3 4 )
L:1/8
Q:1/4=130
M:3/4
K:C
V:1 treble 
V:2 treble 
V:3 bass 
V:4 bass 
V:1
 C2 | [CE]4 [DG]2 | [Cc]4 [CG]2 | ([DF]2 [CE]2) [B,D]2 | C4 [Ec]2 | [Ee]4 [Ec]2 | (A2 B2) [Ec]2 | %7
 [B,G]4 [D^F]2 | [B,G]4 [DG]2 | [FA]4 [FB]2 | [Ec]4 [CG]2 | ([DF]2 [CE]2) [B,D]2 | [B,E]4 [CG]2 | %13
 ([CA]2 [FB]2) [Ec]2 | (G2 F2) [CE]2 | D4 [B,D]2 | [G,C]4 |] %17
V:2
 C2 | x6 | x6 | x6 | C4 x2 | x6 | D4 x2 | x6 | x6 | x6 | x6 | x6 | x6 | x6 | D4 x2 | (C2 B,2) x2 | %16
 x4 |] %17
V:3
 [C,E,]2 | [C,G,]4 [B,,G,]2 | [A,,E,]4 E,2 | ([F,A,]2 G,2) [G,,G,]2 | [C,E,]4 [C,G,]2 | %5
 [A,,C]4 [C,A,]2 | [D,^F,]4 [C,G,]2 | [E,G,]4 [D,A,]2 | [G,,D,]4 [G,B,]2 | [F,C]4 [D,D]2 | %10
 [A,,C]4 [C,E,]2 | ([D,A,]2 [E,G,]2) [F,A,]2 | [E,^G,]4 [C,E,]2 | F,4 [A,,A,]2 | (D2 G,2) [C,G,]2 | %15
 ([F,,A,]2 [G,,G,]2) [G,,G,]2 | [C,E,]4 |] %17
V:4
 x2 | x6 | x4 E,2 | x2 G,2 x2 | x6 | x6 | x6 | x6 | x6 | x6 | x6 | x6 | x6 | (F,,2 D,2) x2 | %14
 B,,4 x2 | x6 | x4 |] %17

